Gurmukhi/0A36.svg

<svg enable-background="new 0 0 336 592" viewBox="0 0 336 592" xmlns="http://www.w3.org/2000/svg"><path d="m74.022255 196.787766c2.402229-1.982605 4.974983-1.678788 7.438164-1.679261 59.488784-.011566 118.97763-.033081 178.466339.04538 15.187378.020019 15.187164.173202 20.113525 14.622146 1.856903 5.446229.551239 7.310318-5.379425 7.359864-8.16452.068191-16.336792.211136-24.492523-.066498-4.552887-.154999-5.955185 1.366577-5.942184 5.993362.149948 53.322861.095077 106.646317.092391 159.96962-.000076 1.666229.091492 3.34317-.061676 4.99643-.32756 3.535492-2.465683 4.795379-5.533248 3.334808-6.16214-2.934082-12.159562-6.213501-18.232529-9.335663-2.795761-1.437347-2.520279-4.04306-2.520538-6.536011-.001999-18.663147-.001038-37.326294.01271-55.989441.007828-10.643585.418793-9.281524-9.52951-9.312561-16.996613-.053039-33.994858.109009-50.989472-.081085-4.416961-.049408-5.802292 1.285706-6.372986 5.855683-1.616974 12.948181-5.085952 25.445587-12.363998 36.556396-5.787659 8.835541-13.404175 12.659668-21.651077 10.922485-7.87143-1.65805-12.732849-7.255676-13.452126-15.246429-1.078789-11.984802 3.214531-22.578827 8.479874-32.887543 2.653312-5.194763 5.699058-10.236084 9.573173-14.597168 3.202423-3.60495 4.422951-7.463897 4.375588-12.237854-.221199-22.292206-3.639931-44.030273-10.331887-65.298248-1.410179-4.48172-3.607719-6.410889-8.547042-6.122894-7.639191.445388-15.325509.015655-22.987862.163406-3.139915.060547-5.103035-1.015533-5.896248-4.096359-1.381859-5.367127-5.561813-9.948532-4.267433-16.332565m66.301979 32.572235c5.372421 18.196533 9.250488 36.698837 10.802612 55.620163.302536 3.688293 1.513611 4.805755 5.109055 4.781463 18.810303-.127167 37.62297-.146942 56.432495.035034 4.234955.040985 5.397125-1.537506 5.368668-5.556121-.143814-20.308411-.185944-40.619721.031967-60.926865.051574-4.80632-1.500992-6.297363-6.285843-6.253113-22.9711.212464-45.945191.08902-68.918045.152329-1.90036.005233-3.975556-.548417-6.013306 1.049331 1.089005 3.41005 2.191162 6.861328 3.472397 11.097779z"/><path d="m192.169739 384.167206c-.930619 10.649658-6.557556 16.59079-15.734207 17.072235-8.410859.441284-15.899033-4.882416-17.600342-12.512909-2.311157-10.365662 2.397262-18.780701 12.01654-20.700989 11.100815-2.216003 20.034165 3.796356 20.845368 13.771668.053345.655975.288955 1.297149.472641 2.369995z"/></svg>

<svg version="1.1" id="Layer_1" xmlns="http://www.w3.org/2000/svg" xmlns:xlink="http://www.w3.org/1999/xlink" x="0px" y="0px"
	 width="100%" viewBox="0 0 336 592" enable-background="new 0 0 336 592" xml:space="preserve">
<path fill="#000000" opacity="1.000000" stroke="none" 
	d="
M74.022255,196.787766 
	C76.424484,194.805161 78.997238,195.108978 81.460419,195.108505 
	C140.949203,195.096939 200.438049,195.075424 259.926758,195.153885 
	C275.114136,195.173904 275.113922,195.327087 280.040283,209.776031 
	C281.897186,215.222260 280.591522,217.086349 274.660858,217.135895 
	C266.496338,217.204086 258.324066,217.347031 250.168335,217.069397 
	C245.615448,216.914398 244.213150,218.435974 244.226151,223.062759 
	C244.376099,276.385620 244.321228,329.709076 244.318542,383.032379 
	C244.318466,384.698608 244.410034,386.375549 244.256866,388.028809 
	C243.929306,391.564301 241.791183,392.824188 238.723618,391.363617 
	C232.561478,388.429535 226.564056,385.150116 220.491089,382.027954 
	C217.695328,380.590607 217.970810,377.984894 217.970551,375.491943 
	C217.968552,356.828796 217.969513,338.165649 217.983261,319.502502 
	C217.991089,308.858917 218.402054,310.220978 208.453751,310.189941 
	C191.457138,310.136902 174.458893,310.298950 157.464279,310.108856 
	C153.047318,310.059448 151.661987,311.394562 151.091293,315.964539 
	C149.474319,328.912720 146.005341,341.410126 138.727295,352.520935 
	C132.939636,361.356476 125.323120,365.180603 117.076218,363.443420 
	C109.204788,361.785370 104.343369,356.187744 103.624092,348.196991 
	C102.545303,336.212189 106.838623,325.618164 112.103966,315.309448 
	C114.757278,310.114685 117.803024,305.073364 121.677139,300.712280 
	C124.879562,297.107330 126.100090,293.248383 126.052727,288.474426 
	C125.831528,266.182220 122.412796,244.444153 115.720840,223.176178 
	C114.310661,218.694458 112.113121,216.765289 107.173798,217.053284 
	C99.534607,217.498672 91.848289,217.068939 84.185936,217.216690 
	C81.046021,217.277237 79.082901,216.201157 78.289688,213.120331 
	C76.907829,207.753204 72.727875,203.171799 74.022255,196.787766 
M140.324234,229.360001 
	C145.696655,247.556534 149.574722,266.058838 151.126846,284.980164 
	C151.429382,288.668457 152.640457,289.785919 156.235901,289.761627 
	C175.046204,289.634460 193.858871,289.614685 212.668396,289.796661 
	C216.903351,289.837646 218.065521,288.259155 218.037064,284.240540 
	C217.893250,263.932129 217.851120,243.620819 218.069031,223.313675 
	C218.120605,218.507355 216.568039,217.016312 211.783188,217.060562 
	C188.812088,217.273026 165.837997,217.149582 142.865143,217.212891 
	C140.964783,217.218124 138.889587,216.664474 136.851837,218.262222 
	C137.940842,221.672272 139.042999,225.123550 140.324234,229.360001 
z"/>
<path fill="#000000" opacity="1.000000" stroke="none" 
	d="
M192.169739,384.167206 
	C191.239120,394.816864 185.612183,400.757996 176.435532,401.239441 
	C168.024673,401.680725 160.536499,396.357025 158.835190,388.726532 
	C156.524033,378.360870 161.232452,369.945831 170.851730,368.025543 
	C181.952545,365.809540 190.885895,371.821899 191.697098,381.797211 
	C191.750443,382.453186 191.986053,383.094360 192.169739,384.167206 
z"/>
</svg>
